src/Icon/svgs/Divider.svg

<svg width="24" height="24" viewBox="0 0 24 24" fill="none" xmlns="http://www.w3.org/2000/svg">
<path d="M3 7C3 7.55228 3.44772 8 4 8H20C20.5523 8 21 7.55228 21 7V2H19V6H5V2H3V7Z" fill="#1B1C1D"/>
<path d="M3 17C3 16.4477 3.44772 16 4 16H20C20.5523 16 21 16.4477 21 17V22H19V18H5V22H3V17Z" fill="#1B1C1D"/>
<path d="M22 11H2V13H22V11Z" fill="#1B1C1D"/>
</svg>

<svg xmlns="http://www.w3.org/2000/svg" width="24" height="24" fill="#1B1C1D"><path d="M3 7a1 1 0 0 0 1 1h16a1 1 0 0 0 1-1V2h-2v4H5V2H3v5zm0 10a1 1 0 0 1 1-1h16a1 1 0 0 1 1 1v5h-2v-4H5v4H3v-5zm19-6H2v2h20v-2z"/></svg>
